X: 1034
T: Hicaz-Hümâyûn Peşrev
C: Veli Dede
O: Turkey
F: http://compmusic.upf.edu/node/140
N: hicaz-humayun--pesrev--cenber----veli_dede
N: makam= hicaz-humayun
N: form= pesrev
N: usul= cenber = 24/4
M: 24/4
L: 1/16
K: C _7/8B ^c  
Q: 1/4=66
%%MIDI tuningsystem comma53
G4 A4 A2 B2 A2 G2  | A2 Bc B2 c2 A6 f2  | \
w:  1. HANE  |   | 
e2 de d2 cd c2 Bc B2 A2  | 
w:   | 
A6 c2 cB BA B4  | B4 A2 B2 c2 d4 c2  | \
w:   |   | 
{d}c2 =Bc B2 c2 d4 z4  | c2 d4 c2 de d{e}c d2 e2  | 
w:   |   | 
d4 e2 f2 e2 f2 e2 d2  | e2 ^2/4f2 g2 =f2 e4 d4  | \
w:   |   | 
e2 f2 e2 d2 c3d c4  | c4 B2 c2 d2 e2 d2 c2  | 
w:   |   | 
c2 d2 c2 B2 B2 A2 B4  | c2 d4 c2 d2 c2 d2 e2  | \
w:   |   | 
d2 ef e2 d2 c3B A4  | 
w:   | 
e3d d3c c2 Bc B2 A2  | A6 d2 c2 B2 A2 G2  | \
w:   |   | 
A6 B2 c4 d3c  | {d}c2 =Bc B2 c2 d4 z4  | 
w:   |   | 
d2 ef e2 d2 e3d c4  | c2 de d2 c2 d3c B4  | \
w:  TESLİM  |   | 
B2 cd c2 d2 c3B A4  | 
w:   | 
A2 d2 c2 d2 c3B A2 c2  | B6 c2 B3A ^G2 A2  | \
w:   |   | 
^G4 A2 A2 A4 z4  | G2 A2 B2 d2 c4 d4  | 
w:   |  2. HANE  | 
c2 B2 A2 G2 d4 z4  | e2 ^3/4fg e2 d2 c2 B2 A2 G2  | \
w:   |   | 
A6 c2 B2 BA B4  | 
w:   | 
z4 A2 B2 c4 d4  | c2 d2 c2 B2 A4 z4  | \
w:   |   | 
B4 c4 B2 c2 B2 A2  | G4 z4 A4 G2 A2  | 
w:   |   | 
B4 A2 B2 c6 d2  | c2 d2 c2 B2 A6 B2  | \
w:   |   | 
c4 B2 c2 d4 c2 d2  | e6 f2 e4 d4  | 
w:   |   | 
e3d c2 d2 c4 d4  | e6 f2 e2 d2 c4  | \
w:   |   | 
d6 e2 d2 c2 B4  | c6 d2 c2 B2 A4  | 
w:   |   | 
B3A B2 c2 d6 c2  | {d}c2 =Bc B2 c2 d4 z4  | \
w:   |   | 
d2 ef e2 d2 e3d c4  | 
w:  TESLİM  | 
c2 de d2 c2 d3c B4  | B2 cd c2 d2 c3B A4  | \
w:   |   | 
A2 d2 c2 d2 c3B A2 c2  | 
w:   | 
B6 c2 B3A ^G2 A2  | ^G4 A2 A2 A4 z4  | \
w:   |   | 
d4 e4 e2 f2 e2 d2  | a2 g2 f2 e2 d2 c2 B2 A2  | 
w:  3. HANE  |   | 
B4 z4 z2 e2 d2 c2  | B3A B2 c2 B4 c4  | \
w:   |   | 
d8 z4 c2 d2  | c4 e2 f2 e3d =c2 e2  | 
w:   |   | 
d2 =c4 =B2 c4 d4  | A6 d2 c4 d4  | e6 g2 ^3/4f2 g2 a2 =b2  | \
w:   |   |   | 
a4 g2 ^3/4f2 e4 z4  | ^2/4f3e f2 g2 =f2 e2 d2 c2  | 
w:   |   | 
d4 c2 d2 e4 d2 e2  | ^3/4f4 e2 f2 g4 f2 g2  | \
w:   |   | 
a6 ^3/4f2 g2 a2 g2 f2  | e6 g2 ^3/4f4 e4  | 
w:   |   | 
d2 e2 d2 c2 B2 A2 B4  | z2 e2 d2 e2 d4 c2 d2  | \
w:   |   | 
{d}c2 =Bc B2 c2 d4 z4  | 
w:   | 
d2 ef e2 d2 e3d c4  | c2 de d2 c2 d3c B4  | \
w:  TESLİM  |   | 
B2 cd c2 d2 c3B A4  | 
w:   | 
A2 d2 c2 d2 c3B A2 c2  | B6 c2 B3A ^G2 A2  | \
w:   |   | 
^G4 A2 A2 A4 z4  | A2 d4 c2 d3c d2 e2  | 
w:   |  4. HANE  | 
d4 e2 f2 e2 d2 c4  | B2 c4 B2 c3B c2 d2  | \
w:   |   | 
c2 e2 d2 c2 B6 A2  | BA Bc B2 A2 G2 ^3/4F2 G4  | 
w:   |   | 
A2 B2 G2 A2 B4 c4  | B2 c2 B2 A2 G4 ^3/4F4  | \
w:   |   | 
G2 A2 G2 ^3/4F2 E4 F4  | G6 A2 B4 c4  | 
w:   |   | 
d4 c2 d2 e2 f2 e2 d2  | f2 e2 d2 c2 d6 c2  | \
w:   |   | 
B4 A4 B3A B2 c2  | d6 e2 d2 c2 B4  | 
w:   |   | 
c6 d2 c2 B2 A4  | B3A B2 d2 c2 B2 A2 G2  | \
w:   |   | 
A6 B2 c4 d4  | z2 g2 f2 e2 d4 c2 d2  | 
w:   |   | 
{d}c2 =Bc B2 c2 d4 z4  | d2 ef e2 d2 e3d c4  | \
w:   |  TESLİM  | 
c2 de d2 c2 d3c B4  | 
w:   | 
B2 cd c2 d2 c3B A4  | A2 d2 c2 d2 c3B A2 c2  | \
w:   |   | 
B6 c2 B3A ^G2 A2  | 
w:   | 
^G4 A2 A2 A4 z4  | |


